svgs/jitsi.svg

<svg xmlns="http://www.w3.org/2000/svg" xml:space="preserve" style="fill-rule:evenodd;clip-rule:evenodd;stroke-linejoin:round;stroke-miterlimit:2" viewBox="0 0 192 192"><path d="M1815.77 349.658c-2.19 3.709-4.13 6.14-4.13 6.14 0 .012-.01.023-.02.035 0 0-11.92 14.167-28.62 14.167-11.66 0-18.42-3.309-22.16-6.338-1.94 1.716-3.48 4.067-4.8 6.407-3.6 6.393-5.19 13.281-5.19 13.281a6.005 6.005 0 0 1-11.51.648c-4.03-11.423-5.61-22.206-4.29-32.745 1.04-8.298 5.01-15.735 8.87-19.492 2.73-2.652 5.68-3.761 8.08-3.761 1.62 0 5.04.957 8.92 2.671 2.51 1.105 5.31 2.479 7.86 3.779-.39-.389-.78-.812-1.17-1.271-3.28-3.934-6.44-11.138-8.46-19.826-3.35-14.477 8.84-24.518 14.54-26.892 2.61-1.083 8.91-2.696 13.75-3.862-.25-1.422-.35-2.805-.43-4.171 0-.077 0-.154-.01-.231-.3-6.022-.32-13.626 4.16-19.743 2.07-2.82 4.39-4.542 7.35-6.007 3.06-1.516 7.04-2.694 12.63-5.722 2.94-1.593 4.03-4.493 4.54-6.891.59-2.813.36-5.157.36-5.157a5.998 5.998 0 0 1 11.38-3.249S1832 241.546 1832 247c0 2.484-.41 7.43-4.59 13.572 1.95 4.478 2.23 8.816 1.83 12.466.25-.026.51-.038.76-.038 4.23 0 15.94 3.037 18.88 17.83 2.26 11.321-1.97 29.169-3.02 32.455-3.48 10.873-9.35 19.984-19.3 28.547-1.84 1.578-4.57 1.558-6.65.313l-4.14-2.487Zm-49.54-3.025c-2.98-1.563-6.84-3.524-10.15-4.984-1.16-.511-2.66-1.056-3.58-1.379-.54.543-1.44 1.495-1.97 2.338-1.69 2.644-3.09 6.262-3.58 10.139a48.771 48.771 0 0 0-.23 9.521c3.3-5.232 7.73-9.821 13.15-11.876v-.002c.08-.029.16-.057.24-.083 2.6-.868 4.59-2.194 6.12-3.674Zm7 9.859c2.42.843 5.64 1.508 9.77 1.508 11.34 0 19.34-9.778 19.36-9.798.02-.024 6-7.06 7.37-14.382a23.581 23.581 0 0 1-4.1-2.817c-4.32 2.061-10.47 4.297-16.3 5.706a57.9 57.9 0 0 1-5.93 1.126c-.77 5.305-3.97 13.218-10.17 18.657Zm48.31-20.996c-.2 1.065-.47 2.127-.79 3.173.12.058.23.12.34.186l1.35.814c1.95-1.819 3.64-3.807 5.08-5.795-2.07.635-4.17 1.225-5.98 1.622Zm-28.51-41.91c-4.38.995-11.93 2.792-14.72 3.953-2.82 1.172-9.12 5.966-7.46 13.108 1.11 4.813 2.58 9.079 4.27 12.229.75 1.384 2.12 2.961 2.42 3.308 2.2.336 5.49-.296 8.97-1.139a81.934 81.934 0 0 0 8.18-2.455c-2.06-.943-4.33-1.59-6.69-1.59-2.81 0-5.23.732-5.23.732a5.995 5.995 0 0 1-6.87-8.89c2.09-3.382 5.81-6.237 9.75-8.118 3.84-1.833 7.83-2.724 10.35-2.724 4.24 0 12.4.824 21.27 4.446 3.28 1.339 7.22 3.71 10.84 6.118-1.98-7.087-4.17-13.999-5.57-17.081a20.32 20.32 0 0 1-1.49-4.895 37.522 37.522 0 0 1-3.69 3.311c-5.31 4.174-10.98 6.61-10.98 6.61-1.88.81-4.04.608-5.74-.536-3.32-2.245-5.78-4.376-7.61-6.387Zm6.43-25.343c5.89-3.138 10.12-6.119 13.15-8.832-2.93 1.359-5.35 2.271-7.42 3.165-1.79.778-3.21 1.421-4.35 2.97a9.806 9.806 0 0 0-1.38 2.697Zm17.97 2.636c-4.45 3.483-10.24 7.098-17.8 10.691.67 1.931 2.03 4.009 4.97 6.416 1.53-.852 3.46-2.045 5.34-3.521 2.23-1.749 4.49-3.865 5.4-6.447.12-.365.29-.716.48-1.049 0 0 1.48-2.556 1.61-6.09Zm20.06 31.168c.21-3.126.15-6.21-.37-8.877-.75-3.735-2.55-5.941-4.25-7.102-.05 1.448.03 3.222.59 4.449 1.05 2.306 2.52 6.58 4.03 11.53Zm-31.95 13.198c3.2 2.173 5.6 4.371 6.78 5.594 1.39 1.44 3.24 3.161 5.68 3.161 1.03 0 2.64-.359 4.43-.876-3.2-2.185-6.76-4.368-9.7-5.57a49.354 49.354 0 0 0-7.19-2.309Z" style="fill-rule:evenodd;clip-rule:evenodd;stroke-linejoin:round;stroke-miterlimit:2" transform="translate(-1696 -212)"/></svg>

<?xml version="1.0" encoding="UTF-8" standalone="no"?>
<svg
   width="100%"
   height="100%"
   viewBox="0 0 192 192"
   version="1.1"
   xml:space="preserve"
   style="fill-rule:evenodd;clip-rule:evenodd;stroke-linejoin:round;stroke-miterlimit:2;"
   id="svg11"
   sodipodi:docname="jitsi.svg"
   inkscape:version="1.2.2 (b0a8486541, 2022-12-01)"
   xmlns:inkscape="http://www.inkscape.org/namespaces/inkscape"
   xmlns:sodipodi="http://sodipodi.sourceforge.net/DTD/sodipodi-0.dtd"
   xmlns="http://www.w3.org/2000/svg"
   xmlns:svg="http://www.w3.org/2000/svg"><defs
   id="defs15" /><sodipodi:namedview
   id="namedview13"
   pagecolor="#ffffff"
   bordercolor="#000000"
   borderopacity="0.25"
   inkscape:showpageshadow="2"
   inkscape:pageopacity="0.0"
   inkscape:pagecheckerboard="0"
   inkscape:deskcolor="#d1d1d1"
   showgrid="false"
   inkscape:zoom="1.5496134"
   inkscape:cx="141.00291"
   inkscape:cy="134.87235"
   inkscape:window-width="1274"
   inkscape:window-height="631"
   inkscape:window-x="1282"
   inkscape:window-y="708"
   inkscape:window-maximized="0"
   inkscape:current-layer="svg11" />
    <path
   d="M1815.77,349.658C1813.58,353.367 1811.64,355.798 1811.64,355.798C1811.64,355.81 1811.63,355.821 1811.62,355.833C1811.62,355.833 1799.7,370 1783,370C1771.34,370 1764.58,366.691 1760.84,363.662C1758.9,365.378 1757.36,367.729 1756.04,370.069C1752.44,376.462 1750.85,383.35 1750.85,383.35C1750.25,385.949 1748,387.84 1745.34,387.99C1742.67,388.141 1740.23,386.514 1739.34,383.998C1735.31,372.575 1733.73,361.792 1735.05,351.253C1736.09,342.955 1740.06,335.518 1743.92,331.761C1746.65,329.109 1749.6,328 1752,328C1753.62,328 1757.04,328.957 1760.92,330.671C1763.43,331.776 1766.23,333.15 1768.78,334.45C1768.39,334.061 1768,333.638 1767.61,333.179C1764.33,329.245 1761.17,322.041 1759.15,313.353C1755.8,298.876 1767.99,288.835 1773.69,286.461C1776.3,285.378 1782.6,283.765 1787.44,282.599C1787.19,281.177 1787.09,279.794 1787.01,278.428C1787.01,278.351 1787.01,278.274 1787,278.197C1786.7,272.175 1786.68,264.571 1791.16,258.454C1793.23,255.634 1795.55,253.912 1798.51,252.447C1801.57,250.931 1805.55,249.753 1811.14,246.725C1814.08,245.132 1815.17,242.232 1815.68,239.834C1816.27,237.021 1816.04,234.677 1816.04,234.677C1815.71,231.763 1817.53,229.036 1820.35,228.231C1823.17,227.425 1826.16,228.778 1827.42,231.428C1827.42,231.428 1832,241.546 1832,247C1832,249.484 1831.59,254.43 1827.41,260.572C1829.36,265.05 1829.64,269.388 1829.24,273.038C1829.49,273.012 1829.75,273 1830,273C1834.23,273 1845.94,276.037 1848.88,290.83C1851.14,302.151 1846.91,319.999 1845.86,323.285C1842.38,334.158 1836.51,343.269 1826.56,351.832C1824.72,353.41 1821.99,353.39 1819.91,352.145L1815.77,349.658ZM1766.23,346.633C1763.25,345.07 1759.39,343.109 1756.08,341.649C1754.92,341.138 1753.42,340.593 1752.5,340.27C1751.96,340.813 1751.06,341.765 1750.53,342.608C1748.84,345.252 1747.44,348.87 1746.95,352.747C1746.56,355.891 1746.49,359.059 1746.72,362.268C1750.02,357.036 1754.45,352.447 1759.87,350.392C1759.87,350.391 1759.87,350.391 1759.87,350.39C1759.95,350.361 1760.03,350.333 1760.11,350.307C1762.71,349.439 1764.7,348.113 1766.23,346.633ZM1773.23,356.492C1775.65,357.335 1778.87,358 1783,358C1794.34,358 1802.34,348.222 1802.36,348.202C1802.38,348.178 1808.36,341.142 1809.73,333.82C1808.23,333.017 1806.86,332.046 1805.63,331.003C1801.31,333.064 1795.16,335.3 1789.33,336.709C1787.29,337.203 1785.29,337.583 1783.4,337.835C1782.63,343.14 1779.43,351.053 1773.23,356.492ZM1821.54,335.496C1821.34,336.561 1821.07,337.623 1820.75,338.669C1820.87,338.727 1820.98,338.789 1821.09,338.855C1821.09,338.855 1822.44,339.669 1822.44,339.669C1824.39,337.85 1826.08,335.862 1827.52,333.874C1825.45,334.509 1823.35,335.099 1821.54,335.496ZM1793.03,293.586C1788.65,294.581 1781.1,296.378 1778.31,297.539C1775.49,298.711 1769.19,303.505 1770.85,310.647C1771.96,315.46 1773.43,319.726 1775.12,322.876C1775.87,324.26 1777.24,325.837 1777.54,326.184C1779.74,326.52 1783.03,325.888 1786.51,325.045C1789.25,324.382 1792.1,323.518 1794.69,322.59C1792.63,321.647 1790.36,321 1788,321C1785.19,321 1782.77,321.732 1782.77,321.732C1780.38,322.472 1777.78,321.65 1776.25,319.67C1774.72,317.691 1774.58,314.969 1775.9,312.842C1777.99,309.46 1781.71,306.605 1785.65,304.724C1789.49,302.891 1793.48,302 1796,302C1800.24,302 1808.4,302.824 1817.27,306.446C1820.55,307.785 1824.49,310.156 1828.11,312.564C1826.13,305.477 1823.94,298.565 1822.54,295.483C1821.83,293.916 1821.34,292.256 1821.05,290.588C1819.89,291.782 1818.64,292.891 1817.36,293.899C1812.05,298.073 1806.38,300.509 1806.38,300.509C1804.5,301.319 1802.34,301.117 1800.64,299.973C1797.32,297.728 1794.86,295.597 1793.03,293.586ZM1799.46,268.243C1805.35,265.105 1809.58,262.124 1812.61,259.411C1809.68,260.77 1807.26,261.682 1805.19,262.576C1803.4,263.354 1801.98,263.997 1800.84,265.546C1800.22,266.399 1799.77,267.307 1799.46,268.243ZM1817.43,270.879C1812.98,274.362 1807.19,277.977 1799.63,281.57C1800.3,283.501 1801.66,285.579 1804.6,287.986C1806.13,287.134 1808.06,285.941 1809.94,284.465C1812.17,282.716 1814.43,280.6 1815.34,278.018C1815.46,277.653 1815.63,277.302 1815.82,276.969C1815.82,276.969 1817.3,274.413 1817.43,270.879ZM1837.49,302.047C1837.7,298.921 1837.64,295.837 1837.12,293.17C1836.37,289.435 1834.57,287.229 1832.87,286.068C1832.82,287.516 1832.9,289.29 1833.46,290.517C1834.51,292.823 1835.98,297.097 1837.49,302.047ZM1805.54,315.245C1808.74,317.418 1811.14,319.616 1812.32,320.839C1813.71,322.279 1815.56,324 1818,324C1819.03,324 1820.64,323.641 1822.43,323.124C1819.23,320.939 1815.67,318.756 1812.73,317.554C1810.22,316.529 1807.79,315.782 1805.54,315.245Z"
   id="path3"
   style="fill-rule:evenodd;clip-rule:evenodd;stroke-linejoin:round;stroke-miterlimit:2"
   transform="translate(-1696,-212)"
   inkscape:label="jitsi_path" />
</svg>
